final/rings.svg

<?xml version="1.0" encoding="iso-8859-1"?>
<!-- Generator: Adobe Illustrator 10, SVG Export Plug-In . SVG Version: 3.0.0 Build 76)  -->
<!DOCTYPE svg PUBLIC "-//W3C//DTD SVG 1.0//EN"    "http://www.w3.org/TR/2001/REC-SVG-20010904/DTD/svg10.dtd" [
	<!ENTITY ns_flows "http://ns.adobe.com/Flows/1.0/">
	<!ENTITY ns_svg "http://www.w3.org/2000/svg">
	<!ENTITY ns_xlink "http://www.w3.org/1999/xlink">
]>
<svg  xmlns="&ns_svg;" xmlns:xlink="&ns_xlink;" xmlns:a="http://ns.adobe.com/AdobeSVGViewerExtensions/3.0/"
	 width="551.229" height="578.031" viewBox="0 0 551.229 578.031"
	 style="overflow:visible;enable-background:new 0 0 551.229 578.031" xml:space="preserve">
	<style type="text/css">
	<![CDATA[
		@font-face{font-family:'Times-Roman';src:url(C514BDB.cef)}
	]]>
	</style>
	<g id="Layer_1">
		<text transform="matrix(1 0 0 1 6.376 515.0679)"><tspan x="0" y="0" style="font-family:'Times-Roman'; font-size:12;">&quot;Rings&quot;</tspan><tspan x="0" y="14.5" style="font-family:'Times-Roman'; font-size:12;">Copyright </tspan><tspan x="51.668" y="14.5" style="font-family:'Times-Roman'; font-size:12;">&#xA9;</tspan><tspan x="60.785" y="14.5" style="font-family:'Times-Roman'; font-size:12;"> 2000 Rob Myers http://www.robmyers.org/ .</tspan><tspan x="0" y="29" style="font-family:'Times-Roman'; font-size:12;">This work is licensed under the Creative Commons Attribution-ShareAlike License.</tspan><tspan x="0" y="43.5" style="font-family:'Times-Roman'; font-size:12;">To view a copy of this license, visit http://creativecommons.org/licenses/by-sa/1.0/ </tspan><tspan x="0" y="58" style="font-family:'Times-Roman'; font-size:12;">or send a letter to Creative Commons, 559 Nathan Abbott Way, Stanford, California 94305, USA.</tspan></text>
		<g>
			<g>
				<path style="stroke:#000000;stroke-width:7.992;" d="M147.744,158.04c29.592,78.408,63.504,137.376,112.824,152.856
					c48.888,15.336,109.008-14.256,175.392-62.424c-2.736,9.433-5.472,18.864-8.208,28.296s-5.472,18.864-8.208,28.296
					c-65.016,43.345-124.128,69.12-173.232,54.792c-49.176-14.328-85.176-67.68-116.783-139.104
					c3.023-10.44,6.048-20.88,9.071-31.32C141.624,178.992,144.647,168.552,147.744,158.04z"/>
				<g>
					<path d="M371.808,482.688c56.376-11.592,116.137-69.768,148.752-151.992c14.688-37.08,22.032-74.304,22.681-108.432v-9
						c-1.08-61.416-24.696-111.096-67.032-127.872c-32.112-12.744-69.48-4.176-104.4,20.016v59.184
						c18.072-8.352,36.36-10.08,52.633-3.6c45.071,17.856,58.248,92.016,29.231,165.096c-18.504,46.729-49.824,82.008-81.864,96.624
						V482.688z M280.512,222.696C274.32,127.584,228.384,50.544,170.28,35.712v86.904c0.216,0,0.432-0.072,0.576-0.072
						c47.663,0,87.119,63.864,87.119,142.848c0,77.761-39.456,141.624-87.119,141.624c-0.145,0-0.36,0-0.576,0v46.152
						c34.199-8.712,64.151-38.88,84.239-81.576c5.473,51.768,28.225,92.448,65.736,107.28c16.2,6.479,33.696,7.487,51.552,3.815
						v-59.976c-18,8.28-36.288,10.008-52.56,3.527c-45.072-17.855-58.248-91.943-29.232-165.023
						c18.504-46.728,49.824-81.936,81.792-96.624v-59.184C336.168,130.104,302.976,171.216,280.512,222.696z M170.28,35.712
						c-6.624-1.656-13.393-2.52-20.305-2.52c-72,0-131.184,95.184-131.184,211.32c0,116.064,59.184,211.248,131.184,211.248
						c6.912,0,13.681-0.937,20.305-2.592v-46.152c-48.456-0.504-87.624-64.152-87.624-141.624
						c0-78.624,39.168-142.272,87.624-142.776V35.712z"/>
					<path style="fill:none;stroke:#000000;stroke-width:15.984;" d="M280.512,222.696
						c-6.84-105.984-63.071-189.504-130.536-189.504c-72,0-131.184,95.184-131.184,211.32c0,116.064,59.184,211.248,131.184,211.248
						c42.48,0,80.496-33.192,104.544-84.168c5.473,51.768,28.225,92.448,65.736,107.28
						c67.392,26.712,157.392-39.889,200.304-148.177c42.984-108.359,23.04-218.592-44.352-245.304
						C411.192,59.616,325.008,120.888,280.512,222.696z M170.856,122.544c47.663,0,87.119,63.864,87.119,142.848
						c0,77.761-39.456,141.624-87.119,141.624c-48.744,0-88.2-63.863-88.2-141.624C82.656,186.408,122.112,122.544,170.856,122.544z
						 M424.44,160.992c-45.072-17.856-105.48,27.144-134.425,100.224c-29.016,73.08-15.84,147.168,29.232,165.023
						c45.072,17.929,105.479-27.071,134.424-100.151C482.688,253.008,469.512,178.848,424.44,160.992z"/>
				</g>
			</g>
			<g>
				<path style="fill:#EC93C1;stroke:#AD497D;stroke-width:7.992;" d="M136.944,132.84
					c29.592,78.408,63.504,137.376,112.823,152.855c48.889,15.336,109.009-14.256,175.393-62.424
					c-2.736,9.432-5.472,18.864-8.208,28.296s-5.473,18.864-8.208,28.295c-65.017,43.344-124.128,69.121-173.232,54.793
					c-49.176-14.328-85.176-67.681-116.784-139.104c3.024-10.44,6.049-20.88,9.072-31.32
					C130.824,153.792,133.848,143.352,136.944,132.84z"/>
				<g>
					<path style="fill:#E6DF00;" d="M361.008,457.488c56.376-11.592,116.136-69.696,148.752-151.991
						c14.688-37.08,22.032-74.304,22.68-108.433v-9c-1.079-61.416-24.695-111.096-67.031-127.872
						c-32.112-12.744-69.48-4.176-104.4,20.016v59.184c18.072-8.352,36.36-10.08,52.632-3.6
						c45.072,17.856,58.248,92.016,29.232,165.096c-18.504,46.728-49.824,82.008-81.864,96.696V457.488z M269.712,197.496
						c-6.192-95.112-52.128-172.152-110.232-186.984v86.904c0.217,0,0.433-0.072,0.576-0.072c47.664,0,87.12,63.864,87.12,142.848
						c0,77.759-39.456,141.625-87.12,141.625c-0.144,0-0.359,0-0.576,0v46.151c34.2-8.712,64.152-38.808,84.24-81.576
						c5.473,51.84,28.225,92.448,65.736,107.28c16.2,6.479,33.696,7.488,51.552,3.815v-59.903c-18,8.279-36.288,10.008-52.56,3.527
						c-45.072-17.855-58.248-92.016-29.232-165.096c18.504-46.728,49.824-81.936,81.792-96.624V80.208
						C325.368,104.904,292.176,146.016,269.712,197.496z M159.479,10.512c-6.623-1.656-13.392-2.52-20.304-2.52
						c-72,0-131.184,95.184-131.184,211.32c0,116.063,59.184,211.248,131.184,211.248c6.912,0,13.681-0.936,20.304-2.592v-46.151
						c-48.455-0.505-87.623-64.152-87.623-141.625c0-78.624,39.168-142.272,87.623-142.776V10.512z"/>
					<path style="fill:none;stroke:#A68D27;stroke-width:15.984;" d="M269.712,197.496C262.872,91.512,206.64,7.992,139.176,7.992
						c-72,0-131.184,95.184-131.184,211.32c0,116.063,59.184,211.248,131.184,211.248c42.48,0,80.496-33.12,104.544-84.168
						c5.473,51.84,28.225,92.448,65.736,107.28c67.392,26.712,157.392-39.889,200.304-148.176
						c42.984-108.36,23.04-218.592-44.352-245.304C400.392,34.416,314.208,95.688,269.712,197.496z M160.056,97.344
						c47.664,0,87.12,63.864,87.12,142.848c0,77.759-39.456,141.625-87.12,141.625c-48.744,0-88.199-63.865-88.199-141.625
						C71.856,161.208,111.312,97.344,160.056,97.344z M413.64,135.792c-45.071-17.856-105.479,27.144-134.424,100.224
						c-29.016,73.08-15.84,147.24,29.232,165.096c45.071,17.856,105.479-27.144,134.424-100.224
						C471.888,227.808,458.712,153.648,413.64,135.792z"/>
				</g>
			</g>
		</g>
	</g>
</svg>

<?xml version="1.0" encoding="UTF-8" standalone="no"?>
<!-- Generator: Adobe Illustrator 10, SVG Export Plug-In . SVG Version: 3.0.0 Build 76)  -->
<svg
   xmlns:dc="http://purl.org/dc/elements/1.1/"
   xmlns:cc="http://creativecommons.org/ns#"
   xmlns:rdf="http://www.w3.org/1999/02/22-rdf-syntax-ns#"
   xmlns:svg="http://www.w3.org/2000/svg"
   xmlns="http://www.w3.org/2000/svg"
   xmlns:sodipodi="http://sodipodi.sourceforge.net/DTD/sodipodi-0.dtd"
   xmlns:inkscape="http://www.inkscape.org/namespaces/inkscape"
   width="551.23187"
   height="492.76013"
   viewBox="0 0 551.229 578.031"
   style="overflow:visible"
   xml:space="preserve"
   id="svg2847"
   sodipodi:version="0.32"
   inkscape:version="0.46"
   sodipodi:docname="rings.svg"
   inkscape:output_extension="org.inkscape.output.svg.inkscape"
   version="1.0"><metadata
   id="metadata2893"><rdf:RDF><cc:Work
       rdf:about=""><dc:format>image/svg+xml</dc:format><dc:type
         rdf:resource="http://purl.org/dc/dcmitype/StillImage" /></cc:Work></rdf:RDF></metadata><defs
   id="defs2891"><inkscape:perspective
   sodipodi:type="inkscape:persp3d"
   inkscape:vp_x="0 : 289.0155 : 1"
   inkscape:vp_y="0 : 1000 : 0"
   inkscape:vp_z="551.229 : 289.0155 : 1"
   inkscape:persp3d-origin="275.6145 : 192.677 : 1"
   id="perspective2895" />
		
		
	</defs><sodipodi:namedview
   inkscape:window-height="670"
   inkscape:window-width="839"
   inkscape:pageshadow="2"
   inkscape:pageopacity="0.0"
   guidetolerance="10.0"
   gridtolerance="10.0"
   objecttolerance="10.0"
   borderopacity="1.0"
   bordercolor="#666666"
   pagecolor="#ffffff"
   id="base"
   showgrid="false"
   inkscape:zoom="0.79926508"
   inkscape:cx="275.6145"
   inkscape:cy="289.0155"
   inkscape:window-x="0"
   inkscape:window-y="64"
   inkscape:current-layer="svg2847" />
	<style
   type="text/css"
   id="style2849">
	
		@font-face{font-family:'Times-Roman';src:url(C514BDB.cef)}
	
	</style>
	
<g
   style="overflow:visible"
   id="g2868"
   transform="matrix(1.1730474,0,0,1.1730474,-47.696062,2.2194199e-6)">
			<g
   id="g2870">
				<path
   id="path2872"
   d="M 147.744,158.04 C 177.336,236.448 211.248,295.416 260.568,310.896 C 309.456,326.232 369.576,296.64 435.96,248.472 C 433.224,257.905 430.488,267.336 427.752,276.768 C 425.016,286.2 422.28,295.632 419.544,305.064 C 354.528,348.409 295.416,374.184 246.312,359.856 C 197.136,345.528 161.136,292.176 129.529,220.752 C 132.552,210.312 135.577,199.872 138.6,189.432 C 141.624,178.992 144.647,168.552 147.744,158.04 z"
   style="stroke:#000000;stroke-width:7.9920001" />
				<g
   id="g2874">
					<path
   id="path2876"
   d="M 371.808,482.688 C 428.184,471.096 487.945,412.92 520.56,330.696 C 535.248,293.616 542.592,256.392 543.241,222.264 L 543.241,213.264 C 542.161,151.848 518.545,102.168 476.209,85.392 C 444.097,72.648 406.729,81.216 371.809,105.408 L 371.809,164.592 C 389.881,156.24 408.169,154.512 424.442,160.992 C 469.513,178.848 482.69,253.008 453.673,326.088 C 435.169,372.817 403.849,408.096 371.809,422.712 L 371.809,482.688 L 371.808,482.688 z M 280.512,222.696 C 274.32,127.584 228.384,50.544 170.28,35.712 L 170.28,122.616 C 170.496,122.616 170.712,122.544 170.856,122.544 C 218.519,122.544 257.975,186.408 257.975,265.392 C 257.975,343.153 218.519,407.016 170.856,407.016 C 170.711,407.016 170.496,407.016 170.28,407.016 L 170.28,453.168 C 204.479,444.456 234.431,414.288 254.519,371.592 C 259.992,423.36 282.744,464.04 320.255,478.872 C 336.455,485.351 353.951,486.359 371.807,482.687 L 371.807,422.711 C 353.807,430.991 335.519,432.719 319.247,426.238 C 274.175,408.383 260.999,334.295 290.015,261.215 C 308.519,214.487 339.839,179.279 371.807,164.591 L 371.807,105.407 C 336.168,130.104 302.976,171.216 280.512,222.696 z M 170.28,35.712 C 163.656,34.056 156.887,33.192 149.975,33.192 C 77.975,33.192 18.791,128.376 18.791,244.512 C 18.791,360.576 77.975,455.76 149.975,455.76 C 156.887,455.76 163.656,454.823 170.28,453.168 L 170.28,407.016 C 121.824,406.512 82.656,342.864 82.656,265.392 C 82.656,186.768 121.824,123.12 170.28,122.616 L 170.28,35.712 z" />
					<path
   id="path2878"
   d="M 280.512,222.696 C 273.672,116.712 217.441,33.192 149.976,33.192 C 77.976,33.192 18.792,128.376 18.792,244.512 C 18.792,360.576 77.976,455.76 149.976,455.76 C 192.456,455.76 230.472,422.568 254.52,371.592 C 259.993,423.36 282.745,464.04 320.256,478.872 C 387.648,505.584 477.648,438.983 520.56,330.695 C 563.544,222.336 543.6,112.103 476.208,85.391 C 411.192,59.616 325.008,120.888 280.512,222.696 z M 170.856,122.544 C 218.519,122.544 257.975,186.408 257.975,265.392 C 257.975,343.153 218.519,407.016 170.856,407.016 C 122.112,407.016 82.656,343.153 82.656,265.392 C 82.656,186.408 122.112,122.544 170.856,122.544 z M 424.44,160.992 C 379.368,143.136 318.96,188.136 290.015,261.216 C 260.999,334.296 274.175,408.384 319.247,426.239 C 364.319,444.168 424.726,399.168 453.671,326.088 C 482.688,253.008 469.512,178.848 424.44,160.992 z"
   style="fill:none;stroke:#000000;stroke-width:15.98400021" />
				</g>
			</g>
			<g
   id="g2880">
				<path
   id="path2882"
   d="M 136.944,132.84 C 166.536,211.248 200.448,270.216 249.767,285.695 C 298.656,301.031 358.776,271.439 425.16,223.271 C 422.424,232.703 419.688,242.135 416.952,251.567 C 414.216,260.999 411.479,270.431 408.744,279.862 C 343.727,323.206 284.616,348.983 235.512,334.655 C 186.336,320.327 150.336,266.974 118.728,195.551 C 121.752,185.111 124.777,174.671 127.8,164.231 C 130.824,153.792 133.848,143.352 136.944,132.84 z"
   style="fill:#ec93c1;stroke:#ad497d;stroke-width:7.9920001" />
				<g
   id="g2884">
					<path
   id="path2886"
   d="M 361.008,457.488 C 417.384,445.896 477.144,387.792 509.76,305.497 C 524.448,268.417 531.792,231.193 532.44,197.064 L 532.44,188.064 C 531.361,126.648 507.745,76.968 465.409,60.192 C 433.297,47.448 395.929,56.016 361.009,80.208 L 361.009,139.392 C 379.081,131.04 397.369,129.312 413.641,135.792 C 458.713,153.648 471.889,227.808 442.873,300.888 C 424.369,347.616 393.049,382.896 361.009,397.584 L 361.009,457.488 L 361.008,457.488 z M 269.712,197.496 C 263.52,102.384 217.584,25.344 159.48,10.512 L 159.48,97.416 C 159.697,97.416 159.913,97.344 160.056,97.344 C 207.72,97.344 247.176,161.208 247.176,240.192 C 247.176,317.951 207.72,381.817 160.056,381.817 C 159.912,381.817 159.697,381.817 159.48,381.817 L 159.48,427.968 C 193.68,419.256 223.632,389.16 243.72,346.392 C 249.193,398.232 271.945,438.84 309.456,453.672 C 325.656,460.151 343.152,461.16 361.008,457.487 L 361.008,397.584 C 343.008,405.863 324.72,407.592 308.448,401.111 C 263.376,383.256 250.2,309.095 279.216,236.015 C 297.72,189.287 329.04,154.079 361.008,139.391 L 361.008,80.208 C 325.368,104.904 292.176,146.016 269.712,197.496 z M 159.479,10.512 C 152.856,8.856 146.087,7.992 139.175,7.992 C 67.175,7.992 7.991,103.176 7.991,219.312 C 7.991,335.375 67.175,430.56 139.175,430.56 C 146.087,430.56 152.856,429.624 159.479,427.968 L 159.479,381.817 C 111.024,381.312 71.856,317.665 71.856,240.192 C 71.856,161.568 111.024,97.92 159.479,97.416 L 159.479,10.512 z"
   style="fill:#e6df00" />
					<path
   id="path2888"
   d="M 269.712,197.496 C 262.872,91.512 206.64,7.992 139.176,7.992 C 67.176,7.992 7.992,103.176 7.992,219.312 C 7.992,335.375 67.176,430.56 139.176,430.56 C 181.656,430.56 219.672,397.44 243.72,346.392 C 249.193,398.232 271.945,438.84 309.456,453.672 C 376.848,480.384 466.848,413.783 509.76,305.496 C 552.744,197.136 532.8,86.904 465.408,60.192 C 400.392,34.416 314.208,95.688 269.712,197.496 z M 160.056,97.344 C 207.72,97.344 247.176,161.208 247.176,240.192 C 247.176,317.951 207.72,381.817 160.056,381.817 C 111.312,381.817 71.857,317.952 71.857,240.192 C 71.856,161.208 111.312,97.344 160.056,97.344 z M 413.64,135.792 C 368.569,117.936 308.161,162.936 279.216,236.016 C 250.2,309.096 263.376,383.256 308.448,401.112 C 353.519,418.968 413.927,373.968 442.872,300.888 C 471.888,227.808 458.712,153.648 413.64,135.792 z"
   style="fill:none;stroke:#a68d27;stroke-width:15.98400021" />
				</g>
			</g>
		</g></svg>
